Newaita-dark/actions/16/code-context.svg

<svg height="16" viewBox="0 0 16 16" width="16" xmlns="http://www.w3.org/2000/svg"><g fill="#e0e0e0"><path d="m3.308594 1.453125c-.363282 0-.660156.292969-.660156.65625v4.886719l-.957032.476562c-.207031.105469-.34375.304688-.363281.53125-.019531.226563.078125.449219.261719.585938l1.058594.792968v4.632813c0 .363281.296874.660156.660156.660156h2.644531c.238281.003907.457031-.121093.578125-.328125.121094-.203125.121094-.457031 0-.664062-.117188-.203125-.339844-.328125-.578125-.324219-.511719 0-1.261719 0-1.988281 0v-4.304687c0-.207032-.097656-.402344-.261719-.527344l-.472656-.351563.371093-.183593c.222657-.113282.363282-.339844.363282-.589844v-4.632813h1.988281c.238281 0 .457031-.121093.578125-.328125.121094-.203125.121094-.457031 0-.664062-.121094-.203125-.339844-.328125-.578125-.324219zm0 0"/><path d="m9.921875 1.453125c-.238281-.003906-.457031.121094-.578125.324219-.117188.207031-.117188.460937 0 .664062.121094.207032.339844.328125.578125.328125h1.988281v4.632813c0 .25.140625.476562.363282.589844l.371093.183593-.46875.351563c-.167969.125-.265625.320312-.265625.527344v4.304687c-.726562 0-1.476562 0-1.988281 0-.238281-.003906-.457031.121094-.578125.324219-.117188.207031-.117188.460937 0 .664062.121094.207032.339844.332032.578125.328125h2.648437c.363282 0 .65625-.296875.65625-.660156v-4.632813l1.058594-.792968c.183594-.136719.28125-.359375.261719-.585938-.019531-.226562-.15625-.425781-.359375-.53125l-.960938-.476562v-4.886719c0-.363281-.292968-.65625-.65625-.65625zm0 0"/></g></svg>

<svg xmlns="http://www.w3.org/2000/svg" xmlns:xlink="http://www.w3.org/1999/xlink" width="16px" height="16px" viewBox="0 0 16 16" version="1.1">
<g id="surface1">
     <defs>
  <style id="current-color-scheme" type="text/css">
   .ColorScheme-Text { color:#eeeeee; } .ColorScheme-Highlight { color:#424242; }
  </style>
 </defs>
<path style="fill:currentColor" class="ColorScheme-Text" d="M 3.308594 1.453125 C 2.945312 1.453125 2.648438 1.746094 2.648438 2.109375 L 2.648438 6.996094 L 1.691406 7.472656 C 1.484375 7.578125 1.347656 7.777344 1.328125 8.003906 C 1.308594 8.230469 1.40625 8.453125 1.589844 8.589844 L 2.648438 9.382812 L 2.648438 14.015625 C 2.648438 14.378906 2.945312 14.675781 3.308594 14.675781 L 5.953125 14.675781 C 6.191406 14.679688 6.410156 14.554688 6.53125 14.347656 C 6.652344 14.144531 6.652344 13.890625 6.53125 13.683594 C 6.414062 13.480469 6.191406 13.355469 5.953125 13.359375 C 5.441406 13.359375 4.691406 13.359375 3.964844 13.359375 L 3.964844 9.054688 C 3.964844 8.847656 3.867188 8.652344 3.703125 8.527344 L 3.230469 8.175781 L 3.601562 7.992188 C 3.824219 7.878906 3.964844 7.652344 3.964844 7.402344 L 3.964844 2.769531 L 5.953125 2.769531 C 6.191406 2.769531 6.410156 2.648438 6.53125 2.441406 C 6.652344 2.238281 6.652344 1.984375 6.53125 1.777344 C 6.410156 1.574219 6.191406 1.449219 5.953125 1.453125 Z M 3.308594 1.453125 "/>
     <defs>
  <style id="current-color-scheme" type="text/css">
   .ColorScheme-Text { color:#eeeeee; } .ColorScheme-Highlight { color:#424242; }
  </style>
 </defs>
<path style="fill:currentColor" class="ColorScheme-Text" d="M 9.921875 1.453125 C 9.683594 1.449219 9.464844 1.574219 9.34375 1.777344 C 9.226562 1.984375 9.226562 2.238281 9.34375 2.441406 C 9.464844 2.648438 9.683594 2.769531 9.921875 2.769531 L 11.910156 2.769531 L 11.910156 7.402344 C 11.910156 7.652344 12.050781 7.878906 12.273438 7.992188 L 12.644531 8.175781 L 12.175781 8.527344 C 12.007812 8.652344 11.910156 8.847656 11.910156 9.054688 L 11.910156 13.359375 C 11.183594 13.359375 10.433594 13.359375 9.921875 13.359375 C 9.683594 13.355469 9.464844 13.480469 9.34375 13.683594 C 9.226562 13.890625 9.226562 14.144531 9.34375 14.347656 C 9.464844 14.554688 9.683594 14.679688 9.921875 14.675781 L 12.570312 14.675781 C 12.933594 14.675781 13.226562 14.378906 13.226562 14.015625 L 13.226562 9.382812 L 14.285156 8.589844 C 14.46875 8.453125 14.566406 8.230469 14.546875 8.003906 C 14.527344 7.777344 14.390625 7.578125 14.1875 7.472656 L 13.226562 6.996094 L 13.226562 2.109375 C 13.226562 1.746094 12.933594 1.453125 12.570312 1.453125 Z M 9.921875 1.453125 "/>
</g>
</svg>
